X:1
T:My dearest, my fairest
T:My dearest, my fairest
T:Pausanias the Betrayer
T:Henry Purcell
C:Henry Purcell
%%score [ 1 2 ] { ( 3 5 6 ) | ( 4 7 ) }
L:1/8
M:3/2
K:Bb
V:1 treble nm="Sopran"
V:2 treble nm="Alt"
V:3 bass nm="Cembalo"
V:5 bass 
V:6 bass 
V:4 bass 
V:7 bass 
V:1
 z4 z4 d4 | B4 G4 z4 | z4 z4 d4 | d2 A2 A4 z4 | z4 z4 d4 | d4 c2 B2 c2 A2 | B4 G4 =B4 | %7
w: My|dear- est,|My|dear- * est,|I|lan- * * * *|* guish, I|
 c4 _B2 A2 B2 G2 | ^F4 F4 B4 | B4 A2 G2 A2 ^F2 | G4 G4 d4 | e6 fe d4- | d2 ed c6 dc | =B4 B4 _B4 | %14
w: lan- * * * *|* guish, I|lan- * * * *|* guish, I|lan- * * *||* guish, I|
 B6 A2 A4 | G8 F4 | d6 e2 f4 | d3 c B4 z4 | z12 | z12 | z4 z4 d4 | f4 d4 f4 | d6 c2 c4 | B8 z4 | %24
w: lan- guish for|you; Thy|sweet- ness has|won _ me,|||I|ne'er, _ no|ne'er shall be|free;|
 z12 | z12 | z12 | z4 z4 A4 | d4 c2 B2 c2 A2 | B4 G4 d4 | e6 c2 c2 =B2 | c8 c4 | c3 _B A4 z4 | %33
w: |||Ah,|why are _ love's _|hours _ so|short _ and so|sweet! Thus|lov- * ing,|
 z4 z4 d4 | d3 c B4 e4 | e3 d c4 f4 | e6 d2 e4 | d8 d4 | =e4 e2 f2 e2 d2 | ^c3 =B A4 A4 | %40
w: thus|lov- * ing and|kiss- * ing, fresh|joys we'll pur-|sue, And|e- ver _ be _|hap- * py, and|
 d6 =e2 d2 ^c2 | d8 A4 | B6 c2 B2 A2 | G4 =E4 A4 | F6 =E2 F4 | D8 A3 A | B8 B2 D2 | D4 E4 z4 | %48
w: e- ver be _|true, and|e- ver be _|hap- py, and|e- ver be|true, But a-|las! should you|change _|
 z12 | z4 z4 A4 | d4 A4 B4 | B2 ^F2 F4 z4 | z12 | z4 z4 d4 | e4 z4 z4 | z4 c4 f4 | d4 z4 z4 | %57
w: |No,|ne- ver, my|dear- * est,||Ah|no,|ah no,|no,|
 z4 c4 e4 | A8 d4 | e2 d2 c2 B2 A2 G2 | G8 d4 | e4 z4 z4 | z4 c4 f4 | d4 z4 z4 | z4 c4 e4 | A8 d4 | %66
w: an no,|no, my|dear- * est, _ ah _|no! ah|no,|ah no,|no,|ah no,|no, my|
 e2 d2 c2 B2 A2 G2 | G8 z4 | z4 c4 e4 | A8 d4 | e2 d2 c2 B2 A2 G2 | G12 |] %72
w: dear- * est, _ ah _|no!|ah no,|no, my|dear- * est, _ ah _|no!|
V:2
 z12 | z4 z4 G4 | ^F4 D4 z4 | z4 z4 B4 | B2 ^F2 F4 z4 | z4 z4 ^F4 | G4 =F2 E2 F2 D2 | E4 C4 z4 | %8
w: |My|fair- est,|My|fair- * est,|I|lan- * * * *|* guish,|
 z4 z4 d4 | d4 c2 B2 c2 A2 | B4 B4 B4 | B4 A6 BA | G6 AG ^F4 | G4 G4 G4 | G6 G2 ^F4 | G8 z4 | z12 | %17
w: I|lan- * * * *|* guish, I|lan- * * *||* guish, I|lan- guish for|you;||
 z4 z4 B4 | B3 A G4 c4 | A3 G F4 A4 | B4 F4 B4 | B4 F4 B4 | B4 B4 A4 | B8 D4 | E4 =E6 E2 | %25
w: Thy|charms _ have un-|done _ me, I|ne'er, _ I|ne'er, _ no|ne'er shall be|free; And|if from thee|
 F4 F4 G2 ^F2 | G6 B2 A2 G2 | ^F8 z4 | z12 | z12 | z12 | z12 | z4 z4 F4 | F3 E D4 B4 | B3 A G4 c4 | %35
w: part- ed, I _|burn _ till we|meet|||||And|kiss- * ing, thus|lov- * ing and|
 c3 B A4 d4 | c6 B2 A4 | B8 B4 | B4 B4 B4 | A3 G F4 A2 G2 | F6 G2 F2 =E2 | D8 F4 | G6 A2 G2 F2 | %43
w: kiss- * ing, fresh|joys we'll pur-|sue, And|e- ver be|hap- * py, and _|e- ver be _|true, and|e- ver be _|
 =E4 ^C4 F4 | D6 D2 ^C4 | D8 z4 | z12 | z4 z4 =B4 | c4 B4 A2 G2 | ^F8 z4 | z12 | z4 z4 A4 | %52
w: hap- py, and|e- ver be|true.||Ah,|tell me not _|so!||No,|
 d4 A4 B4 | B2 ^F2 F4 z4 | z4 G4 c4 | A4 z4 z4 | z4 F4 B4 | G4 A4 c4 | ^F8 B4 | c2 B2 A2 G2 ^F4 | %60
w: ne- ver, my|fair- * est,|Ah no,|no,|ah no,|no, ah no,|no, my|dear- * est, _ ah|
 G8 z4 | z4 G4 c4 | A4 z4 z4 | z4 F4 B4 | G4 A4 c4 | ^F8 B4 | c2 B2 A2 G2 ^F4 | G8 z4 | z4 A4 c4 | %69
w: no!|ah no,|no,|ah no,|no, ah no,|no, my|dear- * est, _ ah|no!|ah no,|
 ^F8 B4 | c2 B2 A2 G2 ^F4 | G12 |] %72
w: no, my|dear- * est, _ ah|no!|
V:3
 [B,,D,G,]4 [D,G,B,]4 [G,B,D]4 | [D,G,B,]4[K:treble] [G,B,D]4 [B,DG]4 | [A,D^F]4 [DFAd]8 | %3
 [A,D]8 [G,B,D]4 | [^F,D]8 [D^Fd]4 | [DGd]4 c8 | [GB]4 [FG=B]4 [=B,FG]4 | [EGc]4 B2 A2 G4 | %8
 [A,D^F]4 [DFA]4 [DGB]4 | [DGB]4 [GA]4 [^FA]4 | [B,DG]4 [DGB]8 | %11
 [B,EB]2 [B,EB]2 [A,EA]2 [A,EA]2 [A,DA]2 [A,DA]2 | %12
 [G,DG]2 [G,DG]2 [G,CG]2 [G,CG]2 [A,C^F]2 [A,CF]2 | [=B,DG]4 [DG=B]4 [_B,G_B]4 | %14
 [DGB]4 [B,DG]4 [A,D^F]4 | G8 z4 | [F,DF]4 [F,DF]4 [F,CF]4 | [DF]3 [CE] [B,D]4 [DF]4 | %18
 [F,B,F]4 [G,B,E]4 [G,CE]4 | E8 [A,CF]4 | F3 E D4 [DFB]4 | d3 c B4 [FB]4 | B8 A4 | B8 z4 | %24
 [CE]2 [CE]2 [C=E]2 [B,CE]2 [A,CE]2 [G,B,E]2 | [F,A,F]2 [F,A,F]4 [F,A,F]2 [G,G]2 [^F,^F]2 | %26
 [G,B,G]2 [G,B,G]4 [B,EGB]2 [A,A]2 [G,G]2 | [^F,D^F]2 [F,DF]6 [A,FA]4 | G2 d2 c8 | [DB]8 [DGd]4 | %30
 [Ec]8 c2 =B2 | [EGc]4 [CEG]8 | [EF]8 [A,EF]4 | [B,D]3 [CE] [DF]4 [DBd]4 | %34
 [Bd]3 [Ac] [GB]4 [Ece]4 | [ce]3 [Bd] [Ac]4 [Fdf]4 | [Fce]6 [FBd]2 [EAc]4 | B4 F4 [DF]4 | %38
 [C=EB]4 [CEB]4 [CEB]4 | [^C=EA]4 [DFA]4 [FA]2 [EG]2 | [A,DF]6 [B,=EG]2 [A,DF]2 [G,_DE]2 | %41
 [F,A,D]4 [A,DF]8 | [B,=E]4 [B,E]4 [GB]2 [FA]2 | [=EG]4 E4 [A,DFA]4 | F6 =E2 [G,_DF]4 | %45
 [F,A,D]4 [A,DF]4 [DFA]4 | [DB]8 [G,B,D]4 | [G,G]8 [G,=B,G]4 | [G,CG]8 [CA]2 [B,G]2 | %49
 [A,D^F]4 [^F,A,D]8 | [D^Fd]8 [DGd]4 | [D^Fd]12 |[K:bass] [^F,CD]8 [G,B,D]4 | %53
 [^F,D]8[K:treble] [G,DG]4 | [G,EG]4 [G,EG]4 [G,CG]4 | [A,CF]8 [CFc]4 | [DFB]4 [B,DF]4 [B,FB]4 | %57
 [B,FG]4 A4 G4 | [A,D^F]4 [DA]4 [DBd]4 | [Ece]2 [DBd]2 [CAc]2 [B,GB]2 [A,^FA]4 | G8 [DGd]4 | %61
 [EGe]4 [CEG]4 [CGc]4 | [CA]8 [Fcf]4 | [FBd]4 [B,DF]4 [B,FB]4 | [B,FG]4 A4 G4 | %65
 [A,D^F]4 [DA]4 [DBd]4 | [Ece]2 [DBd]2 [CAc]2 [B,GB]2 [A,^FA]4 | G8 [DG]4 | [Cc]2 [DB]2 A4 G4 | %69
 ^F4 A4 [DBd]4 | [Ece]2 [DBd]2 [CAc]2 [B,GB]2 [A,^FA]4 | G12 |] %72
V:4
 G,,8- [G,,,G,,]4 | G,,8- [G,,,G,,]4 | [D,,D,]12 | [^F,,D,]8 [G,,D,]4 | [D,,D,]8 [C,A,]4 | %5
 [B,,G,]4 [C,G,]4 [D,^F,]4 | [G,,G,]12 | [C,,C,]12 | [D,,D,]6 [C,,C,]2 [B,,,B,,]4 | %9
 [E,,E,]8 [D,,D,]4 | [G,,D,]8 G,4 | C,4 F,4 B,,4 | E,4 A,,4 D,4 | [G,,D,]8 [=E,,_D,]4 | [D,,D,]12 | %15
 E,4 D,4 z4 | [B,,,B,,]8 [A,,,A,,]4 | [B,,,B,,]12 | [D,,D,]4 [E,,E,]4 [C,,C,]4 | %19
 [F,,F,]8 [E,,E,]4 | [D,,D,]4 [B,,,B,,]8 | B,8 D,4 | E,4 F,4- [F,,F,]4 | [B,,F,]8 z4 | %24
 C,8- [C,,C,]4 | [D,,D,]12 | [E,,E,]3 [D,,D,] [C,,C,]8 | %27
 [D,,D,]3 [_D,,_D,] [=D,,=D,]2 [E,,E,]2 [D,,D,]2 [C,,C,]2 | [B,,,B,,]4 [C,,C,]4 ^F,,4 | %29
 G,,6 A,,2 B,,4 | C,4 =F,,4 G,,4 | C,8- [C,,C,]4 | [F,,F,]12 | [B,,F,]8 [B,,,B,,]4 | %34
 [E,,E,]6 [D,,D,]2 [C,,C,]4 | [F,,F,]6 [E,,E,]2 [D,,D,]4 | [E,,E,]4 [F,,F,]4 F,,4 | B,,8 B,2 A,2 | %38
 G,4 G,4 G,4 | A,4 D,4 [^C,,^C,]4 | [D,,D,]4 [A,,,A,,]8 | [D,,D,]8 D,4 | %42
 [G,,D,]4 [G,,D,]4 [G,,D,]4 | ^C,8 [F,,D,]4 | G,,4 A,,4- [A,,,A,,]4 | [D,,A,,]12 | [G,,,G,,]12 | %47
 [B,,,B,,]4 [C,,C,]4 [D,,D,]4 | [E,,E,]8 [C,,C,]4 | [D,,D,]8 D,,4 | C8 B,4 | B,4 A,8 | %52
 D,4- [D,,D,]8 | [D,,D,]6 [C,,C,]2 [B,,,B,,]4 | [C,,C,]6 [D,,D,]2 [E,,E,]4 | [F,,F,]8 [A,,,A,,]4 | %56
 [B,,,B,,]6 [C,,C,]2 [D,,D,]4 | [E,,E,]2 [D,,D,]2 [C,,C,]8 | [D,,D,-]4 [D,^F,]4 [G,,G,]4 | %59
 [C,,C,]4 [D,,D,]4 D,,4 | G,,8 [B,,G,]4 | [C,G,]6 D,2 E,4 | F,8 [A,,,A,,]4 | %63
 [B,,,B,,]6 [C,,C,]2 [D,,D,]4 | [E,,E,]2 [D,,D,]2 [C,,C,]8 | [D,,D,-]4 [D,^F,]4 [G,,G,]4 | %66
 [C,,C,]4 [D,,D,]4 D,,4 | G,,8 B,4 | E,2 D,2 C,8 | D,4 ^F,4 [G,,G,]4 | %70
 [C,,C,]4 [D,,D,]4 [D,,,D,,]4 | [G,,,G,,]12 |] %72
V:5
 x12 | x4[K:treble] x8 | x12 | x12 | B,4 A,4 x4 | x4 E4 D4 | D8 x4 | x4 E8 | x12 | x4 C6 D2 | x12 | %11
 x12 | x12 | x12 | x12 | A,2 B,C B,4 x4 | x12 | F,12 | x12 | C3 B, A,4 x4 | B,4- B,4 x4 | %21
 [DF]8 x4 | G3 F E8 | E3 D D4 x4 | x12 | x12 | x8 E4 | x12 | [DG]4 [EG]4 [DA]4 | A4 G4 x4 | %30
 G4 A4 [DG]4 | x12 | A,3 _B, C4 x4 | x12 | E8 x4 | F8 x4 | x12 | D8 x4 | x12 | x8 A,4 | x12 | x12 | %42
 x12 | A,8 x4 | D8 x4 | x12 | A2 G^F G4 x4 | D4 _E4 x4 | x8 E4 | x12 | x12 | x12 |[K:bass] x12 | %53
 B,4 A,4[K:treble] x4 | x12 | x12 | x12 | x4 [A,E]8 | x12 | x12 | [B,D]2 [A,C]2 [G,B,]4 x4 | x12 | %62
 G4 F4 x4 | x12 | x4 [A,E]8 | x12 | x12 | [B,D]2 [A,C]2 [G,B,]4 x4 | G4 E8 | D8 x4 | x12 | %71
 [B,D]4 [A,C]4 [G,B,]4 |] %72
V:6
 x12 | x4[K:treble] x8 | x12 | x12 | x12 | x12 | x12 | x4 C6 B,2 | x12 | x12 | x12 | x12 | x12 | %13
 x12 | x12 | x12 | x12 | x12 | x12 | x12 | x12 | x12 | x12 | x12 | x12 | x12 | x12 | x12 | x12 | %29
 x12 | x12 | x12 | x12 | x12 | x12 | x12 | x12 | x12 | x12 | x12 | x12 | x12 | x12 | x12 | %44
 B,4 A,4 x4 | x12 | x12 | x12 | x12 | x12 | x12 | x12 |[K:bass] x12 | x8[K:treble] x4 | x12 | x12 | %56
 x12 | x12 | x12 | x12 | x12 | x12 | x12 | x12 | x12 | x12 | x12 | x12 | x12 | x12 | x12 | x12 |] %72
V:7
 x12 | x12 | x12 | x12 | x12 | x12 | x12 | x12 | x12 | x12 | x12 | x12 | x12 | x12 | x12 | x12 | %16
 x12 | x12 | x12 | x12 | x12 | x12 | x12 | x12 | x12 | x12 | x12 | x12 | x12 | x12 | x12 | x12 | %32
 x12 | x12 | x12 | x12 | x12 | x12 | x12 | x12 | x12 | x12 | x12 | A,,6 G,,2 x4 | x12 | x12 | x12 | %47
 x12 | x12 | x12 | D,12 | D,12 | x12 | x12 | x12 | x12 | x12 | x12 | x12 | x12 | x12 | x12 | x12 | %63
 x12 | x12 | x12 | x12 | x12 | x12 | x12 | x12 | x12 |] %72

